X: 12
T: Snazzy Jazzy Reel
C: Armand Aromin
H: 10/18/04
M: 4/4
L: 1/8
R: Reel
K: Gmaj
g3 g2 f e2 | dece BeAe | f3 f2 e d2 | ceBe AeGe |
g3 g2 f e2 | dece BeAe | dece BeAe | G8 :|
